symbols/web/dry_cleaning/materialsymbolssharp/dry_cleaning_wght600gradN25fill1_48px.svg

<svg xmlns="http://www.w3.org/2000/svg" height="48" width="48"><path d="M13.95 44.3V32.1h-8.7v-8.4l16.95-7.05v-1.9q-1.8-.4-2.975-1.95-1.175-1.55-1.175-3.45 0-2.45 1.775-4.175Q21.6 3.45 24.1 3.45q2.45 0 4.2 1.725t1.75 4.175h-3.5q0-1-.75-1.675T24.05 7q-.95 0-1.7.675T21.6 9.35q0 1.05.75 1.825.75.775 1.85.775h1.7v4.6l16.9 7.2v8.35h-8.75v12.2Zm-5.2-15.75h5.2V26.2h20.1v2.35h5.2V26.2L24.2 19.55 8.75 26.2Z"/></svg>

<svg xmlns="http://www.w3.org/2000/svg" height="48" width="48"><path d="M13.95 44.3V32.1H5.25V23.7L22.2 16.65V14.75Q20.4 14.35 19.225 12.8Q18.05 11.25 18.05 9.35Q18.05 6.9 19.825 5.175Q21.6 3.45 24.1 3.45Q26.55 3.45 28.3 5.175Q30.05 6.9 30.05 9.35H26.55Q26.55 8.35 25.8 7.675Q25.05 7 24.05 7Q23.1 7 22.35 7.675Q21.6 8.35 21.6 9.35Q21.6 10.4 22.35 11.175Q23.1 11.95 24.2 11.95H25.9V16.55L42.8 23.75V32.1H34.05V44.3ZM8.75 28.55H13.95V26.2H34.05V28.55H39.25V26.2L24.2 19.55L8.75 26.2Z"/></svg>
